X:1
T:The Gleanntán
R:slide
M:12/8
L:1/8
K:D
|:A2D FED F2A A2f|gfe fed efd Bcd|
|A2D FED F2A A2f|1 a2f efe d3 dcB:|2 a2f efe d3 d2A|]
|:d2e f2f gfe f2f|gfe fed efd BAB|
|d2e f2f gfe f2g|1 a2f efe d3 d2A:|2 a2f efe d3 dcB|]